src/assets/images/device_entry.svg

<svg width="94" height="94" viewBox="0 0 94 94" version="1.1" xmlns="http://www.w3.org/2000/svg" xmlns:xlink="http://www.w3.org/1999/xlink">
<g fill="none">
<path fill-rule="evenodd" clip-rule="evenodd" d="M 45 90C 69.8528 90 90 69.8528 90 45C 90 20.1472 69.8528 0 45 0C 20.1472 0 0 20.1472 0 45C 0 69.8528 20.1472 90 45 90Z" transform="translate(2 2)" fill="#D8D8D8" fill-opacity="0.01"/>
<path d="M 45 90C 69.8528 90 90 69.8528 90 45C 90 20.1472 69.8528 0 45 0C 20.1472 0 0 20.1472 0 45C 0 69.8528 20.1472 90 45 90Z" transform="translate(2 2)" stroke="white" stroke-width="3"/>
<path d="M 6.43085 10.78C 4.63879 11.0707 0.989932 11.8268 0 12.3286C 0.407286 0.547339 6.88406 -1.40044 10.4308 0.779999C 6.20865 1.90137 6.32903 8.23614 6.43085 10.78Z" transform="translate(65.9308 28.22) scale(-1 1)" fill="#C4C4C4"/>
<path d="M 6.43085 10.78C 4.63879 11.0707 0.989932 11.8268 0 12.3286C 0.407286 0.547339 6.88406 -1.40044 10.4308 0.779999C 6.20865 1.90137 6.32903 8.23614 6.43085 10.78Z" transform="translate(65.9308 28.22) scale(-1 1)" fill="#C4C4C4"/>
<path fill-rule="evenodd" clip-rule="evenodd" d="M 24.5605 5.80482C 25.9101 5.97699 27.2066 5.21939 27.7191 3.95909C 28.2562 2.6386 28.7836 1.47353 29.2965 0.449768C 30.5023 0.486954 31.5953 0.526215 32.5396 0.576248C 37.6468 0.846878 41.0005 2.3575 43.082 4.39674C 41.652 5.02917 39.9324 5.87749 38.2806 6.7238C 36.5808 7.59465 34.9323 8.47398 33.7101 9.1348C 33.0986 9.46544 32.5928 9.74187 32.2397 9.93584C 32.063 10.0328 31.9245 10.1093 31.8299 10.1615L 31.6837 10.2425C 31.1482 10.5401 30.8475 11.1333 30.924 11.741L 30.9331 20.2067C 30.9927 20.6802 31.274 21.097 31.6908 21.3294C 32.1127 21.5701 32.6088 21.5076 33.0902 21.3629L 33.2202 21.3031C 33.3336 21.2509 33.4994 21.1743 33.71 21.0762C 33.9433 20.9677 34.2318 20.8327 34.5654 20.6754C 34.8342 20.5487 35.1323 20.4074 35.4543 20.2536L 35.6971 20.1377C 37.2061 19.4175 39.9301 18.1175 41.7683 17.163C 42.9724 16.5377 44.1934 15.8805 45.311 15.2375C 44.9258 16.2405 44.4028 17.0819 43.8096 17.6619L 26.5396 27.0762C 25.1221 26.0333 25.607 25.4727 26.4716 24.473C 28.0096 22.6948 30.7492 19.5272 26.1215 9.78375C 20.5023 5.35844 7.8877 5.27588 2.50793 5.24068C 0.768799 5.22929 -0.214233 5.22285 0.0396118 5.07625C 1.75507 4.08553 12.9818 0.917801 16.6978 0C 16.611 0.1875 16.5275 0.367569 16.4472 0.539215C 16.4064 0.626404 16.3665 0.711426 16.3274 0.794144C 15.9169 1.6626 15.947 2.67513 16.4086 3.51761C 16.8701 4.36008 17.7072 4.93059 18.66 5.05214L 24.5605 5.80482Z" transform="translate(24.9604 37.9238)" fill="white" stroke="white"/>
<path d="M 22.1005 13L 16.2 13.7527C 8.38013 -5.47592 0.509107 1.80677 0 14.3013C 0.0509108 6.10544 2.69312 -0.0498744 10.3976 0.000304595C 16.5612 0.0404478 19.9736 8.50061 22.1005 13Z" transform="translate(66.1005 27) scale(-1 1)" fill="white"/>
<mask id="path-7-inside-1" fill="white">
<path d="M 17.0381 1.11457C 4.27651 2.70692 0.865483 1.71672 0 14.3953C 0 28.1778 7.50085 23.8457 19.1594 21.989C 27.984 20.099 33.092 20.952 33.092 8.25672C 32.2435 -2.02998 29.087 -0.388842 17.0381 1.11457Z"/>
</mask>
<g mask="url(#path-7-inside-1)" transform="translate(55.092 41.8761) scale(-1 1)">
<path d="M 0 14.3953L -3.99071 14.1229L -4 14.2589L -4 14.3953L 0 14.3953ZM 17.0381 1.11457L 16.5429 -2.85465L 17.0381 1.11457ZM 33.092 8.25672L 37.092 8.25672L 37.092 8.09203L 37.0785 7.92789L 33.092 8.25672ZM 19.1594 21.989L 19.7885 25.9393L 19.8933 25.9226L 19.9972 25.9003L 19.1594 21.989ZM 3.99071 14.6677C 4.42662 8.28204 5.48266 7.40822 6.11859 7.02601C 6.69787 6.67785 7.69892 6.34501 9.72536 6.03151C 11.7961 5.71115 14.1328 5.50811 17.5334 5.08379L 16.5429 -2.85465C 13.5627 -2.48279 10.6873 -2.21248 8.50229 -1.87445C 6.27291 -1.52955 3.9743 -1.01897 1.99744 0.16918C -2.47892 2.8596 -3.56114 7.82996 -3.99071 14.1229L 3.99071 14.6677ZM 17.5334 5.08379C 20.749 4.68257 22.9441 4.3304 24.9166 4.12903C 26.8922 3.92733 27.7656 3.9957 28.164 4.1098C 28.1994 4.11993 28.1688 4.01552 28.3076 4.30732C 28.5839 4.88851 28.9009 6.10498 29.1055 8.58555L 37.0785 7.92789C 36.8588 5.2651 36.4631 2.8292 35.5324 0.87196C 34.4641 -1.37468 32.7323 -2.9036 30.3664 -3.58109C 28.3635 -4.15462 26.1356 -4.037 24.1041 -3.8296C 22.0695 -3.62189 19.3518 -3.20513 16.5429 -2.85465L 17.5334 5.08379ZM 29.092 8.25672C 29.092 14.2794 27.8449 15.4212 27.1938 15.8616C 26.6416 16.2352 25.7755 16.5727 24.1872 16.9275C 23.4117 17.1007 22.5628 17.2587 21.563 17.444C 20.5854 17.6251 19.4873 17.8281 18.3217 18.0778L 19.9972 25.9003C 21.0377 25.6775 22.0296 25.4937 23.0204 25.3101C 23.989 25.1306 24.9869 24.946 25.9313 24.7351C 27.7826 24.3215 29.8482 23.7244 31.676 22.4881C 35.785 19.7087 37.092 14.9293 37.092 8.25672L 29.092 8.25672ZM 18.5303 18.0388C 15.5477 18.5138 12.619 19.1856 10.4897 19.5963C 8.12938 20.0516 6.6645 20.2052 5.69349 20.0864C 5.01742 20.0037 4.93914 19.8623 4.80067 19.6272C 4.46511 19.0575 4 17.6196 4 14.3953L -4 14.3953C -4 18.0622 -3.5275 21.2512 -2.09232 23.6876C -0.460049 26.4585 2.06554 27.7022 4.72201 28.0272C 7.08353 28.3161 9.67984 27.9 12.0049 27.4516C 14.561 26.9585 16.9419 26.3926 19.7885 25.9393L 18.5303 18.0388Z" fill="white"/>
</g>
<path d="M 0 10.3292L 0.685179 4.47255C 4.92876 3.04264 9.69318 1.20359 12.5676 0.221048C 14.5183 -0.445764 15.9365 0.435362 16.0866 2.33438C 16.1919 3.66552 15.1923 4.93186 13.973 5.41957C 12.7537 5.90728 0 10.3292 0 10.3292Z" transform="matrix(0.993226 -0.1162 0.1162 0.993226 57.4919 45.7408)" fill="white"/>
</g>
</svg>

<svg xmlns="http://www.w3.org/2000/svg" width="94" height="94">
  <g fill="none">
    <path fill="#D8D8D8" fill-opacity=".01" fill-rule="evenodd" d="M47 92c24.853 0 45-20.147 45-45S71.853 2 47 2 2 22.147 2 47s20.147 45 45 45z" clip-rule="evenodd"/>
    <path stroke="#fff" stroke-width="3" d="M47 92c24.853 0 45-20.147 45-45S71.853 2 47 2 2 22.147 2 47s20.147 45 45 45z"/>
    <path fill="#C4C4C4" d="M59.5 39c1.792.29 5.44 1.047 6.43 1.549C65.525 28.767 59.048 26.819 55.5 29c4.222 1.121 4.102 7.456 4 10z"/>
    <path fill="#C4C4C4" d="M59.5 39c1.792.29 5.44 1.047 6.43 1.549C65.525 28.767 59.048 26.819 55.5 29c4.222 1.121 4.102 7.456 4 10z"/>
    <path fill="#fff" fill-rule="evenodd" stroke="#fff" d="M49.52 43.729a3 3 0 0 0 3.16-1.846 49.424 49.424 0 0 1 1.577-3.51c1.206.038 2.299.077 3.243.127 5.107.27 8.46 1.781 10.542 3.82-1.43.633-3.15 1.481-4.801 2.328a238.752 238.752 0 0 0-6.04 3.212l-.41.225-.147.081a1.5 1.5 0 0 0-.76 1.499l.01 8.465c.06.474.34.89.757 1.123.422.24.918.178 1.4.034l.13-.06a120.01 120.01 0 0 0 1.345-.628c.269-.127.567-.268.889-.422l.242-.116c1.51-.72 4.234-2.02 6.072-2.974a95.31 95.31 0 0 0 3.542-1.926c-.385 1.003-.908 1.845-1.501 2.425L51.5 65c-1.417-1.043-.933-1.604-.068-2.603 1.538-1.778 4.278-4.946-.35-14.69-5.62-4.425-18.234-4.507-23.614-4.543-1.739-.01-2.722-.017-2.468-.164 1.715-.99 12.942-4.158 16.658-5.076a149.626 149.626 0 0 1-.37.794 3 3 0 0 0 2.332 4.258l5.9.753z" clip-rule="evenodd"/>
    <path fill="#fff" d="M44 40l5.9.753c7.82-19.229 15.691-11.946 16.2.548-.05-8.196-2.693-14.35-10.397-14.3C49.539 27.04 46.127 35.5 44 40z"/>
    <mask id="a" fill="#fff">
      <path d="M17.038 1.115C4.277 2.707.865 1.717 0 14.395c0 13.783 7.5 9.45 19.16 7.594 8.824-1.89 13.932-1.037 13.932-13.732C32.243-2.03 29.087-.39 17.038 1.115z"/>
    </mask>
    <g mask="url(#a)" transform="matrix(-1 0 0 1 55.092 41.876)">
      <path fill="#fff" d="M0 14.395l-3.99-.272-.01.136v.136h4zm17.038-13.28l-.495-3.97.495 3.97zm16.054 7.142h4v-.165l-.014-.164-3.986.329zM19.159 21.989l.63 3.95.104-.016.104-.023-.838-3.911zM3.991 14.668c.436-6.386 1.492-7.26 2.128-7.642.579-.348 1.58-.681 3.606-.994 2.071-.32 4.408-.524 7.808-.948l-.99-7.939c-2.98.372-5.856.643-8.04.98-2.23.345-4.529.856-6.506 2.044C-2.479 2.86-3.56 7.83-3.99 14.123l7.982.545zm13.542-9.584c3.216-.401 5.411-.754 7.384-.955 1.975-.202 2.849-.133 3.247-.02.035.01.005-.093.144.198.276.582.593 1.798.797 4.279l7.973-.658c-.22-2.663-.615-5.099-1.546-7.056-1.068-2.247-2.8-3.776-5.166-4.453-2.003-.574-4.23-.456-6.262-.249-2.034.208-4.752.625-7.561.975l.99 7.939zm11.559 3.173c0 6.022-1.247 7.164-1.898 7.605-.552.373-1.418.71-3.007 1.065-.775.174-1.624.332-2.624.517-.978.181-2.076.384-3.241.634l1.675 7.822c1.04-.223 2.033-.406 3.023-.59.969-.18 1.967-.364 2.911-.575 1.852-.413 3.917-1.01 5.745-2.247 4.109-2.78 5.416-7.559 5.416-14.231h-8zM18.53 18.039c-2.982.475-5.911 1.147-8.04 1.557-2.36.456-3.825.61-4.797.49-.676-.082-.754-.224-.892-.459C4.465 19.057 4 17.62 4 14.395h-8c0 3.667.473 6.856 1.908 9.293 1.632 2.77 4.158 4.014 6.814 4.34 2.362.288 4.958-.128 7.283-.576 2.556-.494 4.937-1.06 7.783-1.513l-1.258-7.9z"/>
    </g>
    <path fill="#fff" d="M58.692 56v-5.897C62.741 48.19 67.26 45.81 70 44.5c1.86-.889 3.371-.179 3.74 1.69.26 1.31-.586 2.684-1.74 3.31-1.154.626-13.308 6.5-13.308 6.5z"/>
  </g>
</svg>
